public/Mint.svg

<svg width="577" height="393" viewBox="0 0 577 393" fill="none" xmlns="http://www.w3.org/2000/svg">
<path d="M296.326 200.755C296.326 200.755 295.328 163.075 320.166 150.866C345.005 138.657 348.982 139.758 348.982 139.758C348.982 139.758 353.945 150.866 350.965 155.103C347.985 159.352 346.058 153.978 346.058 152.985C346.058 151.991 352.018 142.044 367.288 142.044C382.558 142.044 390.569 150.208 390.569 150.208C390.569 150.208 390.378 158.562 386.099 162.345C386.099 162.345 392.249 154.181 402.12 154.78C402.12 154.78 415.9 166.917 420.561 175.87C420.561 175.87 408.64 193.585 387.398 195.572C387.398 195.572 398.198 197.763 400.999 200.743C400.999 200.743 363.557 215.274 356.107 208.5C348.657 201.725 359.457 201.928 362.628 205.316C365.798 208.703 372.128 218.446 372.128 218.446C372.128 218.446 341.767 227.005 335.807 211.875L337.487 223.821C337.487 223.821 308.795 218.051 300.415 208.296C292.035 198.541 320.346 184.01 334.877 180.431C349.407 176.852 377.909 174.266 386.48 176.05M288.875 196.769C288.875 196.769 274.344 168.114 244.174 165.325C244.174 165.325 239.703 175.272 245.664 181.053C245.664 181.053 234.864 159.759 197.971 169.706C197.971 169.706 204.681 186.823 209.521 186.428C214.361 186.033 214.921 178.863 209.712 178.671C204.491 178.468 182.42 178.576 170.41 192.4C170.41 192.4 179.72 199.965 187.17 198.768C187.17 198.768 173.39 199.965 161.839 231.409C161.839 231.409 187.17 242.948 200.962 237.777C200.962 237.777 196.122 252.907 190.531 253.697C190.531 253.697 221.823 252.5 225.363 240.961C228.903 229.422 217.353 233.791 218.103 237.382C218.854 240.973 226.674 253.697 226.674 253.697C226.674 253.697 247.165 254.894 256.475 237.777C256.475 237.777 259.085 248.526 254.615 252.105C254.615 252.105 292.617 225.437 291.497 204.741C290.377 184.046 208.76 207.147 199.976 216.387M219.571 186.033C219.571 186.033 243.042 192.795 242.303 205.531M262.794 205.531C262.794 205.531 258.324 222.648 237.832 227.028M365.989 160.418C365.989 160.418 343.358 168.389 341.453 181.783M323.516 191.203C323.516 191.203 354.068 195.189 369.338 189.611M316.693 144.498C316.693 144.498 334.081 117.435 324.637 95.6741C324.637 95.6741 312.716 100.45 312.716 104.699C312.716 104.699 322.654 61.7163 308.246 42.0742C308.246 42.0742 300.796 45.2581 299.799 52.1526C299.799 52.1526 278.434 18.7215 269.998 14.999C269.998 14.999 265.281 24.0241 267.017 34.9044C267.017 34.9044 253.853 5.71058 238.706 2C238.706 2 232.993 12.8804 234.976 20.3135C234.976 20.3135 210.138 2.53863 201.69 8.90646C201.69 8.90646 194.24 30.4039 201.69 41.5476C201.69 41.5476 196.469 39.4289 192.257 42.3495C192.257 42.3495 188.28 70.4781 212.625 87.1996C212.625 87.1996 200.951 85.6077 199.954 89.3182C198.956 93.0288 203.931 112.408 230.259 124.617C230.259 124.617 218.092 125.143 217.341 127.274C217.341 127.274 233.732 156.468 242.919 160.442M292.841 180.586C292.841 180.586 240.185 68.0722 235.715 52.1526C231.245 36.2331 251.613 35.9697 256.822 48.7054C266.2 71.6272 256.822 111.39 256.822 111.39M298.062 104.962C298.062 104.962 297.311 143.445 282.411 153.786M282.411 230.212C282.411 230.212 263.903 251.303 266.144 270.011C266.144 270.011 282.904 272.405 287.004 267.222C287.004 267.222 270.244 277.576 270.614 311.797C270.614 311.797 281.044 312.994 287.004 304.627C287.004 304.627 270.614 320.942 284.394 351.596C284.394 351.596 295.933 343.241 296.314 334.48C296.314 334.48 290.354 354.78 310.106 376.672C310.106 376.672 316.436 373.884 318.676 363.937C318.676 363.937 329.857 383.435 346.618 391C346.618 391 363.378 377.462 361.888 348.412C361.888 348.412 370.089 353.99 377.909 355.582C377.909 355.582 388.339 336.084 380.15 310.6C380.15 310.6 389.46 317.77 393.56 315.376C393.56 315.376 387.6 273.183 368.229 265.223C368.229 265.223 379.41 266.42 381.64 263.237C381.64 263.237 369.674 227.016 347.368 223.833M298.062 214.293C298.062 214.293 314.979 229.015 327.449 277.576C339.918 326.137 344.388 340.859 339.548 347.634C334.709 354.409 322.037 354.002 322.788 343.648C323.539 333.295 324.278 293.891 338.439 285.141M323.516 239.369C323.516 239.369 308.985 250.118 305.636 270.813C302.286 291.509 303.395 301.467 303.395 301.467M332.838 114.778C332.838 114.778 342.529 91.4249 364.129 81.2148C364.129 81.2148 370.089 83.6087 370.84 97.9962C370.84 97.9962 382.021 67.0189 408.091 64.6249C434.173 62.231 438.643 69.4008 438.643 69.4008C438.643 69.4008 451.684 94.13 438.643 89.4619C425.602 84.7937 446.844 71.7947 458.014 72.5847C469.183 73.3747 501.976 83.2018 518.367 104.962L510.916 122.737C510.916 122.737 531.038 114.778 536.998 116.37C542.958 117.961 572.759 158.036 575 180.586C575 180.586 552.649 208.727 521.347 209.517C521.347 209.517 517.616 220.649 524.327 228.608C524.327 228.608 458.137 236.832 472.668 222.504C487.199 208.176 474.908 245.593 479.625 253.709C479.625 253.709 437.523 262.842 420.572 245.33L414.051 261.25C414.051 261.25 391.409 258.341 376.8 239.357M540.717 165.325C487.815 147.419 428.201 162.692 428.201 162.692C428.201 162.692 433.422 195.165 477.384 202.347M490.795 121.145C490.795 121.145 466.954 132.337 463.974 160.98M420.572 101.24C420.572 101.24 404.36 110.564 396.91 139.734M223.302 147.287C223.302 147.287 186.42 108.673 152.003 126.173L157.918 137.544C157.918 137.544 136.486 123.084 103.234 131.032C69.9825 138.98 69.243 156.216 69.243 156.216C69.243 156.216 80.8274 177.881 85.4992 166.63C90.1711 155.378 60.3699 165.553 52.2474 169.862C44.1137 174.171 23.4322 192.149 18.9956 206.501C18.9956 206.501 43.3855 207.925 44.1249 210.798C44.8644 213.67 7.17599 223.725 2 261.441C2 261.441 14.5591 275.446 35.2518 281.191C35.2518 281.191 52.2474 279.18 53.7263 273.004C53.7263 273.004 52.7404 285.979 49.0432 289.45C49.0432 289.45 57.9052 299.145 86.2387 303.215C86.2387 303.215 121.317 294.346 110.785 288.301C100.254 282.256 108.298 308.733 102.495 316.142C102.495 316.142 119.49 329.069 153.975 323.324C153.975 323.324 170.231 318.297 176.146 306.327C176.146 306.327 178.365 321.169 176.393 326.197C176.393 326.197 231.816 315.663 236.006 286.924C240.196 258.185 241.182 291.712 241.182 295.782C241.182 295.782 267.286 281.658 269.751 267.282M156.238 217.201C156.238 217.201 82.2278 217.728 29.5717 255.947M50.9254 202.347C50.9254 202.347 100.109 208.619 115.009 230.428M152.765 230.428C152.765 230.428 149.292 249.579 122.964 275.589M117.989 169.969C117.989 169.969 131.893 167.312 152.765 169.969C173.626 172.627 178.096 179.485 178.096 179.485" stroke="white" stroke-width="2" stroke-miterlimit="10"/>
</svg>

<svg xmlns="http://www.w3.org/2000/svg" width="577" height="393" fill="none"><path stroke="#fff" stroke-miterlimit="10" stroke-width="2" d="M296.326 200.755s-.998-37.68 23.84-49.889c24.839-12.209 28.816-11.108 28.816-11.108s4.963 11.108 1.983 15.345c-2.98 4.249-4.907-1.125-4.907-2.118 0-.994 5.96-10.941 21.23-10.941s23.281 8.164 23.281 8.164-.191 8.354-4.47 12.137c0 0 6.15-8.164 16.021-7.565 0 0 13.78 12.137 18.441 21.09 0 0-11.921 17.715-33.163 19.702 0 0 10.8 2.191 13.601 5.171 0 0-37.442 14.531-44.892 7.757-7.45-6.775 3.35-6.572 6.521-3.184 3.17 3.387 9.5 13.13 9.5 13.13s-30.361 8.559-36.321-6.571l1.68 11.946s-28.692-5.77-37.072-15.525c-8.38-9.755 19.931-24.286 34.462-27.865 14.53-3.579 43.032-6.165 51.603-4.381m-97.605 20.719s-14.531-28.655-44.701-31.444c0 0-4.471 9.947 1.49 15.728 0 0-10.8-21.294-47.693-11.347 0 0 6.71 17.117 11.55 16.722 4.84-.395 5.4-7.565.191-7.757-5.221-.203-27.292-.095-39.302 13.729 0 0 9.31 7.565 16.76 6.368 0 0-13.78 1.197-25.331 32.641 0 0 25.331 11.539 39.123 6.368 0 0-4.84 15.13-10.431 15.92 0 0 31.292-1.197 34.832-12.736 3.54-11.539-8.01-7.17-7.26-3.579.751 3.591 8.571 16.315 8.571 16.315s20.491 1.197 29.801-15.92c0 0 2.61 10.749-1.86 14.328 0 0 38.002-26.668 36.882-47.364-1.12-20.695-82.737 2.406-91.521 11.646m19.595-30.354s23.471 6.762 22.732 19.498m20.491 0s-4.47 17.117-24.962 21.497m128.157-66.61s-22.631 7.971-24.536 21.365m-17.937 9.42s30.552 3.986 45.822-1.592m-52.645-45.113s17.388-27.063 7.944-48.824c0 0-11.921 4.776-11.921 9.025 0 0 9.938-42.983-4.47-62.625 0 0-7.45 3.184-8.447 10.079 0 0-21.365-33.431-29.801-37.154 0 0-4.717 9.025-2.981 19.905 0 0-13.164-29.193-28.311-32.904 0 0-5.713 10.88-3.73 18.314 0 0-24.838-17.775-33.286-11.408 0 0-7.45 21.498 0 32.642 0 0-5.221-2.12-9.433.801 0 0-3.977 28.13 20.368 44.85 0 0-11.674-1.591-12.671 2.12-.998 3.71 3.977 23.089 30.305 35.298 0 0-12.167.526-12.918 2.657 0 0 16.391 29.194 25.578 33.168m49.922 20.144S240.185 68.072 235.715 52.153c-4.47-15.92 15.898-16.183 21.107-3.448 9.378 22.922 0 62.685 0 62.685m41.24-6.428s-.751 38.483-15.651 48.824m0 76.426s-18.508 21.091-16.267 39.799c0 0 16.76 2.394 20.86-2.789 0 0-16.76 10.354-16.39 44.575 0 0 10.43 1.197 16.39-7.17 0 0-16.39 16.315-2.61 46.969 0 0 11.539-8.355 11.92-17.116 0 0-5.96 20.3 13.792 42.192 0 0 6.33-2.788 8.57-12.735 0 0 11.181 19.498 27.942 27.063 0 0 16.76-13.538 15.27-42.588 0 0 8.201 5.578 16.021 7.17 0 0 10.43-19.498 2.241-44.982 0 0 9.31 7.17 13.41 4.776 0 0-5.96-42.193-25.331-50.153 0 0 11.181 1.197 13.411-1.986 0 0-11.966-36.221-34.272-39.404m-49.306-9.54s16.917 14.722 29.387 63.283c12.469 48.561 16.939 63.283 12.099 70.058-4.839 6.775-17.511 6.368-16.76-3.986.751-10.353 1.49-49.757 15.651-58.507m-14.923-45.772s-14.531 10.749-17.88 31.444c-3.35 20.696-2.241 30.654-2.241 30.654m29.443-186.689s9.691-23.353 31.291-33.563c0 0 5.96 2.394 6.711 16.781 0 0 11.181-30.977 37.251-33.371 26.082-2.394 30.552 4.776 30.552 4.776s13.041 24.729 0 20.06c-13.041-4.667 8.201-17.666 19.371-16.876 11.169.79 43.962 10.617 60.353 32.377l-7.451 17.775s20.122-7.959 26.082-6.367c5.96 1.591 35.761 41.666 38.002 64.216 0 0-22.351 28.141-53.653 28.931 0 0-3.731 11.132 2.98 19.091 0 0-66.19 8.224-51.659-6.104 14.531-14.328 2.24 23.089 6.957 31.205 0 0-42.102 9.133-59.053-8.379l-6.521 15.92s-22.642-2.909-37.251-21.893m163.917-74.032c-52.902-17.906-112.516-2.633-112.516-2.633s5.221 32.473 49.183 39.655m13.411-81.202s-23.841 11.192-26.821 39.835m-43.402-59.74s-16.212 9.324-23.662 38.494m-173.608 7.553s-36.882-38.614-71.299-21.114l5.915 11.371s-21.432-14.46-54.684-6.512c-33.251 7.948-33.991 25.184-33.991 25.184s11.584 21.665 16.256 10.414c4.672-11.252-25.13-1.077-33.252 3.232-8.133 4.309-28.815 22.287-33.251 36.639 0 0 24.39 1.424 25.129 4.297.74 2.872-36.949 12.927-42.125 50.643 0 0 12.56 14.005 33.252 19.75 0 0 16.995-2.011 18.474-8.187 0 0-.986 12.975-4.683 16.446 0 0 8.862 9.695 37.196 13.765 0 0 35.078-8.869 24.546-14.914-10.531-6.045-2.487 20.432-8.29 27.841 0 0 16.995 12.927 51.48 7.182 0 0 16.256-5.027 22.171-16.997 0 0 2.219 14.842.247 19.87 0 0 55.423-10.534 59.613-39.273 4.19-28.739 5.176 4.788 5.176 8.858 0 0 26.104-14.124 28.569-28.5m-113.513-50.081s-74.01.527-126.666 38.746m21.353-53.6s49.184 6.272 64.084 28.081m37.756 0s-3.473 19.151-29.801 45.161m-4.975-105.62s13.904-2.657 34.776 0c20.861 2.658 25.331 9.516 25.331 9.516"/></svg>
